static/images/partners/couchbase.svg

<svg fill="none" height="183" viewBox="0 0 518 183" width="518" xmlns="http://www.w3.org/2000/svg" xmlns:xlink="http://www.w3.org/1999/xlink"><clipPath id="a"><path d="m0 0h517.5v182.51h-517.5z"/></clipPath><g clip-path="url(#a)"><g clip-rule="evenodd" fill-rule="evenodd"><path d="m118.59 103.68c.092 2.112-.595 4.184-1.932 5.822s-3.23 2.726-5.318 3.058c-8.34 1.44-25.73 2.35-40.34 2.35s-32-.89-40.35-2.35c-4.78-.83-7.25-4.65-7.25-8.88v-27.68c.0247-2.0834.7551-4.0969 2.0719-5.7116s3.1422-2.7351 5.1781-3.1784c4.1926-.5664 8.4193-.8437 12.65-.83.832.021 1.6218.3704 2.1971.9718.5752.6015.889 1.4061.8729 2.2382v.16 19.35c8.58 0 16-.51 24.65-.51s16 .51 24.62.51v-19.35c-.0606-.83.2108-1.6502.7546-2.2802s1.3154-1.0184 2.1454-1.0798h.16c4.231-.0087 8.457.2686 12.65.83 2.032.4449 3.854 1.5647 5.169 3.1772 1.315 1.6124 2.045 3.6225 2.071 5.7028zm-47.59-83.3c-38.89 0-70.420013 31.74-70.420013 70.88s31.530013 70.87 70.420013 70.87 70.41-31.73 70.41-70.87-31.53-70.88-70.41-70.88z" fill="#ea2328"/><path d="m195.66 79.24c-17.35 0-26.06-12.69-26.06-26.64s9-26.48 26.23-26.48c6.61 0 11.3 1.46 15.27 4.09l-4.94 8.2c-3.105-2.0632-6.774-3.1114-10.5-3-9.28 0-14.27 7.51-14.27 16.86 0 9.64 4.76 17.55 14.44 17.55 4.132.0693 8.159-1.3105 11.38-3.9l4.55 7.89c-2.58 2.36-8.71 5.41-16.1 5.41" fill="#2b2b2b"/><path d="m232.66 79.24c-12.95 0-18.66-9.88-18.66-19.58s5.63-19.82 18.58-19.82 18.87 9.79 18.87 19.5c0 9.54-5.77 19.9-18.79 19.9zm-.21-31.55c-5.57 0-7.37 4.73-7.37 11.65s2.18 11.89 7.75 11.89 7.54-4.64 7.54-11.57-2.3-12-7.92-12" fill="#2b2b2b"/><path d="m267.85 40.76v24.1c0 3.7 1.27 5.54 4.83 5.54 3.74 0 6.6-3.6 7.36-4.52v-25.12h10.46v26.52c-.027 3.6905.308 7.3749 1 11h-10.3c-.408-1.6395-.662-3.3134-.76-5-1.386 1.8489-3.187 3.3467-5.257 4.3732-2.07 1.0264-4.352 1.5528-6.663 1.5368-8.17 0-11.13-5.31-11.13-12.21v-26.22z" fill="#2b2b2b"/><path d="m316.13 79.24c-11.94 0-19.35-7.91-19.35-19.66 0-12.62 8.32-19.74 19.65-19.74 6 0 9.59 1.81 11.34 3l-3.32 7.16c-2.28-1.4807-4.952-2.2403-7.67-2.18-5.82 0-8.91 4.56-8.91 11.4s2.95 11.78 9.13 11.78c2.793.032 5.536-.7423 7.9-2.23l3.17 7.06c-1.75 1.13-5.16 3.35-11.94 3.35" fill="#2b2b2b"/><path d="m356 78.31v-24.1c0-3.69-1.28-5.54-4.77-5.54-3.8 0-6.67 3.54-7.42 4.54v25.1h-10.43v-55.43h10.47v22.37c1.406-1.6912 3.167-3.0524 5.158-3.9874 1.991-.9349 4.163-1.4205 6.362-1.4226 8.17 0 11.13 5.27 11.13 12.22v26.25z" fill="#2b2b2b"/><path d="m385.48 22.88v20.82c2.381-2.4143 5.61-3.803 9-3.87 9.2 0 15.72 6.39 15.72 19.43s-8.57 20-19.79 20c-8.45 0-13.61-2.13-15.43-3v-53.38zm0 47.27c1.604.5718 3.298.8463 5 .81 5.41 0 8.7-4 8.7-11.7 0-6.95-2.32-11.07-7.59-11.07-1.157.0252-2.296.2876-3.347.771-1.051.4833-1.991 1.1773-2.763 2.039z" fill="#2b2b2b"/><path d="m436.22 78.31c-.349-1.3077-.56-2.6483-.63-4-1.253 1.5347-2.832 2.7714-4.622 3.6206s-3.747 1.2897-5.728 1.2894c-6.32 0-11.22-3.85-11.22-10.61 0-9.76 9.89-13.36 19.75-13.36h1.23v-2c0-3.11-1.25-5-5.91-5-3.433.1001-6.737 1.3303-9.4 3.5l-4.51-6.42c2.23-2 7.17-5.43 15.13-5.43 10.27 0 15.09 4 15.09 14v13.1c-.05 3.7908.309 7.576 1.07 11.29zm-1.22-16.55h-1.27c-5.75 0-9.73 1.73-9.73 6 0 2.67 2.11 3.83 4.41 3.83 1.262-.0211 2.505-.3154 3.642-.8626 1.138-.5473 2.144-1.3344 2.948-2.3074z" fill="#2b2b2b"/><path d="m464.26 79.24c-6.71 0-11-2-13.25-3.55l3.49-7.38c2.691 1.8675 5.857 2.9322 9.13 3.07 3.81 0 6-1.09 6-3.23 0-2.46-4.2-3.12-9.46-5.67s-8.17-5.4-8.17-11c0-7.11 5.56-11.59 14-11.59 4.18-.119 8.312.9192 11.94 3l-3.62 7.11c-2.37-1.4889-5.102-2.3015-7.9-2.35-3.53 0-5 1.25-5 3.17 0 2.47 3.41 3.07 7.65 4.8 5.85 2.39 10 5.16 10 11.47 0 8-5.6 12.11-14.8 12.11" fill="#2b2b2b"/><path d="m503.3 71.38c3.375.0282 6.696-.8563 9.61-2.56l3.34 6.8c-2.47 1.4-6.25 3.62-13.92 3.62-12.45 0-19.54-7.88-19.54-19.89s8.15-19.52 18.46-19.52c11.68 0 17.32 8.23 16.08 22.26h-23.33c.49 5.6 3.34 9.29 9.32 9.29zm4-16.41c-.08-4.16-1.71-7.53-6.19-7.53-4.14 0-6.49 2.67-7.18 7.53z" fill="#2b2b2b"/></g><path d="m508.74 97.82h-330.38v4.35h330.38z" fill="#2b2b2b"/><path d="m177.82 119h6.42l21.14 27.28v-27.28h6.82v39.45h-5.8l-21.76-28.07v28.07h-6.82z" fill="#ea2328"/><path d="m228.38 143.73v-.11c-.007-2.084.396-4.149 1.187-6.077.791-1.929 1.954-3.682 3.422-5.161 1.469-1.479 3.214-2.654 5.137-3.458s3.985-1.222 6.069-1.229 4.149.396 6.077 1.187c1.929.791 3.682 1.954 5.161 3.422 1.479 1.469 2.654 3.214 3.458 5.137s1.222 3.985 1.229 6.069v.11c-.019 4.129-1.675 8.081-4.606 10.989-2.93 2.908-6.895 4.534-11.024 4.521h-.37c-4.074.091-8.019-1.436-10.969-4.248-2.951-2.811-4.666-6.678-4.771-10.752zm24.92 0v-.11c0-5.24-3.78-9.58-9.14-9.58s-9 4.28-9 9.47v.11c0 5.19 3.78 9.53 9.08 9.53 5.56 0 9.06-4.29 9.06-9.42z" fill="#ea2328"/><path d="m276.3 119h29.25v6.2h-22.32v10.26h19.77v6.25h-19.77v10.54h22.61v6.2h-29.54z" fill="#ea2328"/><path d="m358.09 159.63-4.73-4.23c-3.512 2.465-7.709 3.766-12 3.72-12.12 0-20.57-9.19-20.57-20.29v-.11c-.028-2.654.468-5.287 1.458-7.749s2.456-4.704 4.313-6.6c1.857-1.895 4.07-3.406 6.512-4.446 2.441-1.04 5.063-1.589 7.717-1.615h.68c12.12 0 20.58 9.19 20.58 20.29v.12c.002 4.361-1.401 8.608-4 12.11l4.51 3.84zm-9.81-8.63-6.82-5.86 4.46-5.08 6.93 6.32c1.289-2.287 1.952-4.875 1.92-7.5v-.11c0-7.67-5.58-14-13.42-14s-13.3 6.2-13.3 13.86v.12c0 7.66 5.58 14 13.41 14 2.388.027 4.74-.577 6.82-1.75z" fill="#ea2328"/><path d="m378.27 141.7v-22.7h6.94v22.43c0 7.33 3.77 11.22 10 11.22s9.93-3.67 9.93-10.94v-22.71h6.86v22.37c0 11.79-6.65 17.71-17 17.71s-16.73-5.93-16.73-17.38z" fill="#ea2328"/><path d="m442.59 118.7h6.41l17.36 39.74h-7.36l-4-9.52h-18.61l-4.06 9.52h-7.1zm9.92 24.07-6.82-15.77-6.76 15.78z" fill="#ea2328"/><path d="m481.6 119h6.94v33.14h20.74v6.31h-27.68z" fill="#ea2328"/></g></svg>

<svg width="518" height="183" viewBox="0 0 518 183" fill="none" xmlns="http://www.w3.org/2000/svg">
<g clip-path="url(#clip0)">
<path fill-rule="evenodd" clip-rule="evenodd" d="M118.59 103.68C118.682 105.792 117.995 107.864 116.658 109.502C115.321 111.14 113.428 112.228 111.34 112.56C103 114 85.61 114.91 71 114.91C56.39 114.91 39 114.02 30.65 112.56C25.87 111.73 23.4 107.91 23.4 103.68V76C23.4247 73.9166 24.1551 71.9031 25.4719 70.2884C26.7887 68.6737 28.6141 67.5533 30.65 67.11C34.8426 66.5436 39.0693 66.2663 43.3 66.28C44.132 66.301 44.9218 66.6504 45.4971 67.2518C46.0723 67.8533 46.3861 68.6579 46.37 69.49C46.37 69.54 46.37 69.6 46.37 69.65V89C54.95 89 62.37 88.49 71.02 88.49C79.67 88.49 87.02 89 95.64 89V69.65C95.5794 68.82 95.8508 67.9998 96.3946 67.3698C96.9384 66.7398 97.71 66.3514 98.54 66.29H98.7C102.931 66.2813 107.157 66.5586 111.35 67.12C113.382 67.5649 115.204 68.6847 116.519 70.2972C117.834 71.9096 118.564 73.9197 118.59 76V103.68ZM71 20.38C32.11 20.38 0.579987 52.12 0.579987 91.26C0.579987 130.4 32.11 162.13 71 162.13C109.89 162.13 141.41 130.4 141.41 91.26C141.41 52.12 109.88 20.38 71 20.38Z" fill="#EA2328"/>
<path fill-rule="evenodd" clip-rule="evenodd" d="M195.66 79.24C178.31 79.24 169.6 66.55 169.6 52.6C169.6 38.65 178.6 26.12 195.83 26.12C202.44 26.12 207.13 27.58 211.1 30.21L206.16 38.41C203.055 36.3468 199.386 35.2986 195.66 35.41C186.38 35.41 181.39 42.92 181.39 52.27C181.39 61.91 186.15 69.82 195.83 69.82C199.962 69.8893 203.989 68.5095 207.21 65.92L211.76 73.81C209.18 76.17 203.05 79.22 195.66 79.22" fill="#2B2B2B"/>
<path fill-rule="evenodd" clip-rule="evenodd" d="M232.66 79.24C219.71 79.24 214 69.36 214 59.66C214 49.96 219.63 39.84 232.58 39.84C245.53 39.84 251.45 49.63 251.45 59.34C251.45 68.88 245.68 79.24 232.66 79.24ZM232.45 47.69C226.88 47.69 225.08 52.42 225.08 59.34C225.08 66.26 227.26 71.23 232.83 71.23C238.4 71.23 240.37 66.59 240.37 59.66C240.37 52.73 238.07 47.66 232.45 47.66" fill="#2B2B2B"/>
<path fill-rule="evenodd" clip-rule="evenodd" d="M267.85 40.76V64.86C267.85 68.56 269.12 70.4 272.68 70.4C276.42 70.4 279.28 66.8 280.04 65.88V40.76H290.5V67.28C290.473 70.9705 290.808 74.6549 291.5 78.28H281.2C280.792 76.6405 280.538 74.9666 280.44 73.28C279.054 75.1289 277.253 76.6267 275.183 77.6532C273.113 78.6796 270.831 79.206 268.52 79.19C260.35 79.19 257.39 73.88 257.39 66.98V40.76H267.85Z" fill="#2B2B2B"/>
<path fill-rule="evenodd" clip-rule="evenodd" d="M316.13 79.24C304.19 79.24 296.78 71.33 296.78 59.58C296.78 46.96 305.1 39.84 316.43 39.84C322.43 39.84 326.02 41.65 327.77 42.84L324.45 50C322.17 48.5193 319.498 47.7597 316.78 47.82C310.96 47.82 307.87 52.38 307.87 59.22C307.87 66.06 310.82 71 317 71C319.793 71.032 322.536 70.2577 324.9 68.77L328.07 75.83C326.32 76.96 322.91 79.18 316.13 79.18" fill="#2B2B2B"/>
<path fill-rule="evenodd" clip-rule="evenodd" d="M356 78.31V54.21C356 50.52 354.72 48.67 351.23 48.67C347.43 48.67 344.56 52.21 343.81 53.21V78.31H333.38V22.88H343.85V45.25C345.256 43.5588 347.017 42.1976 349.008 41.2626C350.999 40.3277 353.171 39.8421 355.37 39.84C363.54 39.84 366.5 45.11 366.5 52.06V78.31H356Z" fill="#2B2B2B"/>
<path fill-rule="evenodd" clip-rule="evenodd" d="M385.48 22.88V43.7C387.861 41.2857 391.09 39.897 394.48 39.83C403.68 39.83 410.2 46.22 410.2 59.26C410.2 72.3 401.63 79.26 390.41 79.26C381.96 79.26 376.8 77.13 374.98 76.26V22.88H385.48ZM385.48 70.15C387.084 70.7218 388.778 70.9963 390.48 70.96C395.89 70.96 399.18 66.96 399.18 59.26C399.18 52.31 396.86 48.19 391.59 48.19C390.433 48.2152 389.294 48.4776 388.243 48.961C387.192 49.4443 386.252 50.1383 385.48 51V70.15Z" fill="#2B2B2B"/>
<path fill-rule="evenodd" clip-rule="evenodd" d="M436.22 78.31C435.871 77.0023 435.66 75.6617 435.59 74.31C434.337 75.8447 432.758 77.0814 430.968 77.9306C429.178 78.7798 427.221 79.2203 425.24 79.22C418.92 79.22 414.02 75.37 414.02 68.61C414.02 58.85 423.91 55.25 433.77 55.25H435V53.25C435 50.14 433.75 48.25 429.09 48.25C425.657 48.3501 422.353 49.5803 419.69 51.75L415.18 45.33C417.41 43.33 422.35 39.9 430.31 39.9C440.58 39.9 445.4 43.9 445.4 53.9V67C445.35 70.7908 445.709 74.576 446.47 78.29L436.22 78.31ZM435 61.76H433.73C427.98 61.76 424 63.49 424 67.76C424 70.43 426.11 71.59 428.41 71.59C429.672 71.5689 430.915 71.2746 432.052 70.7274C433.19 70.1801 434.196 69.393 435 68.42V61.76Z" fill="#2B2B2B"/>
<path fill-rule="evenodd" clip-rule="evenodd" d="M464.26 79.24C457.55 79.24 453.26 77.24 451.01 75.69L454.5 68.31C457.191 70.1775 460.357 71.2422 463.63 71.38C467.44 71.38 469.63 70.29 469.63 68.15C469.63 65.69 465.43 65.03 460.17 62.48C454.91 59.93 452 57.08 452 51.48C452 44.37 457.56 39.89 466 39.89C470.18 39.771 474.312 40.8092 477.94 42.89L474.32 50C471.95 48.5111 469.218 47.6985 466.42 47.65C462.89 47.65 461.42 48.9 461.42 50.82C461.42 53.29 464.83 53.89 469.07 55.62C474.92 58.01 479.07 60.78 479.07 67.09C479.07 75.09 473.47 79.2 464.27 79.2" fill="#2B2B2B"/>
<path fill-rule="evenodd" clip-rule="evenodd" d="M503.3 71.38C506.675 71.4082 509.996 70.5237 512.91 68.82L516.25 75.62C513.78 77.02 510 79.24 502.33 79.24C489.88 79.24 482.79 71.36 482.79 59.35C482.79 47.34 490.94 39.83 501.25 39.83C512.93 39.83 518.57 48.06 517.33 62.09H494C494.49 67.69 497.34 71.38 503.32 71.38H503.3ZM507.3 54.97C507.22 50.81 505.59 47.44 501.11 47.44C496.97 47.44 494.62 50.11 493.93 54.97H507.3Z" fill="#2B2B2B"/>
<path d="M508.74 97.82H178.36V102.17H508.74V97.82Z" fill="#2B2B2B"/>
<path d="M177.82 119H184.24L205.38 146.28V119H212.2V158.45H206.4L184.64 130.38V158.45H177.82V119Z" fill="#EA2328"/>
<path d="M228.38 143.73V143.62C228.373 141.536 228.776 139.471 229.567 137.543C230.358 135.614 231.521 133.861 232.989 132.382C234.458 130.903 236.203 129.728 238.126 128.924C240.049 128.12 242.111 127.702 244.195 127.695C246.279 127.688 248.344 128.091 250.272 128.882C252.201 129.673 253.954 130.836 255.433 132.304C256.912 133.773 258.087 135.518 258.891 137.441C259.695 139.364 260.113 141.426 260.12 143.51V143.62C260.101 147.749 258.445 151.701 255.514 154.609C252.584 157.517 248.619 159.143 244.49 159.13H244.12C240.046 159.221 236.101 157.694 233.151 154.882C230.2 152.071 228.485 148.204 228.38 144.13V143.73ZM253.3 143.73V143.62C253.3 138.38 249.52 134.04 244.16 134.04C238.8 134.04 235.16 138.32 235.16 143.51V143.62C235.16 148.81 238.94 153.15 244.24 153.15C249.8 153.15 253.3 148.86 253.3 143.73Z" fill="#EA2328"/>
<path d="M276.3 119H305.55V125.2H283.23V135.46H303V141.71H283.23V152.25H305.84V158.45H276.3V119Z" fill="#EA2328"/>
<path d="M358.09 159.63L353.36 155.4C349.848 157.865 345.651 159.166 341.36 159.12C329.24 159.12 320.79 149.93 320.79 138.83V138.72C320.762 136.066 321.258 133.433 322.248 130.971C323.238 128.509 324.704 126.267 326.561 124.371C328.418 122.476 330.631 120.965 333.073 119.925C335.514 118.885 338.136 118.336 340.79 118.31C341.02 118.31 341.24 118.31 341.47 118.31C353.59 118.31 362.05 127.5 362.05 138.6V138.72C362.052 143.081 360.649 147.328 358.05 150.83L362.56 154.67L358.09 159.63ZM348.28 151L341.46 145.14L345.92 140.06L352.85 146.38C354.139 144.093 354.802 141.505 354.77 138.88V138.77C354.77 131.1 349.19 124.77 341.35 124.77C333.51 124.77 328.05 130.97 328.05 138.63V138.75C328.05 146.41 333.63 152.75 341.46 152.75C343.848 152.777 346.2 152.173 348.28 151V151Z" fill="#EA2328"/>
<path d="M378.27 141.7V119H385.21V141.43C385.21 148.76 388.98 152.65 395.21 152.65C401.44 152.65 405.14 148.98 405.14 141.71V119H412V141.37C412 153.16 405.35 159.08 395 159.08C384.65 159.08 378.27 153.15 378.27 141.7Z" fill="#EA2328"/>
<path d="M442.59 118.7H449L466.36 158.44H459L455 148.92H436.39L432.33 158.44H425.23L442.59 118.7ZM452.51 142.77L445.69 127L438.93 142.78L452.51 142.77Z" fill="#EA2328"/>
<path d="M481.6 119H488.54V152.14H509.28V158.45H481.6V119Z" fill="#EA2328"/>
</g>
<defs>
<clipPath id="clip0">
<rect width="517.5" height="182.51" fill="white"/>
</clipPath>
</defs>
</svg>
